X: 33845
T: Reconciliation, The
R: reel
M: 4/4
K: Amajor
|:"A"AAcA eAfA|eAfA "E7"ecBc|"A"AAcA eAfA|"(E)"ecBc "E7"AFEF|
"A"AAcA eAfA|eAfA "E7"ecBc|"A"ABAF EFef|1 "E7"ecBc "A"AAcB:|2 "E7"ecBc "A"ecBc||
|:"A"AA/B/ ce ~a3f|"E7"efed cdBc|"A"AA/B/ ce ~a3e|"Bmi"fbba "E7"gefg|
"A"~a3e fa ec|"Bmi"dcBA "E7"BAFG|"A"~A3F EFef|1 "E7"ecBc "A"~A3E:|2 "E7"ecBc "A"ecBc:|

